X: 1
T: Missa L'homme arm\'e quarti toni / Kyrie
N: Derived from Com1002a-Missa_Lhomme_arme-Kyrie.krn
C: Loyset Comp\`ere
%%abc-version 2.0
%%abcx-abcm2ps-target-version 5.9.1 (29 Sep 2008)
%%abc-creator hum2abc beta
%%abcx-conversion-date 2019/02/16 20:28:09
%%abc-edited-by Jesse Rodin
%%abc-edited-by Jesse Rodin; Victoria Chang 2012/02/27
%%abcx-initial-encoding-date 2012/02/27/
%%humdrum-veritas 891677045
%%humdrum-veritas-data 2269977394
%%linebreak <none>
%%barnumbers 0
L: 1/4
M: 3/1
Q: 1/2=120
%%staves [1 2 3 4]
V: 1 clef=treble
V: 2 clef=treble-8
V: 3 clef=treble-8
V: 4 clef=bass
K: C
[V:1] E12- | 
[V:2] B8c4- | 
[V:3] E8E4 | 
[V:4] E,8A,,4- | 
[V:1] E4F8 | 
[V:2] c4d8 | 
[V:3] A8A4 | 
[V:4] A,,4D,8 | 
[V:1] G4A2F3ED2 | 
[V:2] d2e2f2d3c/B/A2- | 
[V:3] G4F8 | 
[V:4] G,,4D,8 | 
[V:1] C3DE2E4D2 | 
[V:2] A2c3BB2A3G | 
[V:3] E2A4G2F4 | 
[V:4] A,,4z4D,4 | 
[V:1] E8E4 | 
[V:2] B4z2G4A2- | 
[V:3] E12 | 
[V:4] G,4G,F,E,D,C,2A,,2 | 
[V:1] F2D3CB,2A,4 | 
[V:2] AGFED2G4^F2 | 
[V:3] z12 | 
[V:4] D,3C,B,,A,,G,,2A,,4 | 
[V:1] D8E4 | 
[V:2] G4z2G4FE | 
[V:3] B4B4E4 | 
[V:4] G,,8C,4 | 
[V:1] F4G8 | 
[V:2] A4G2E2e4 | 
[V:3] z4B4B4 | 
[V:4] D,4E,8 | 
[V:1] z2D2F3GA2E2- | 
[V:2] d8z2c2- | 
[V:3] B4A8 | 
[V:4] G,4D,4A,,3B,, | 
[V:1] EFG2C2F3GAB | 
[V:2] c2B2A2d4c2 | 
[V:3] G4F8 | 
[V:4] C,D,E,2F,2D,3C,/B,,/A,,2- | 
[V:1] c2B3AA4^G2 | 
[V:2] A2B2c3B/A/B4 | 
[V:3] E12- | 
[V:4] A,,2G,,2A,,4z4 | 
[V:1] A12 ||  
[V:2] A12 ||  
[V:3] E12 ||  
[V:4] A,,12 ||  
[V:1]  [K:C] [K:clef=treble][M:2/1]z8 | 
[V:2]  [K:C] [K:clef=treble-8][M:2/1]E6F2 | 
[V:3]  [K:C] [K:clef=treble-8][M:2/1]z8 | 
[V:4]  [K:C] [K:clef=bass][M:2/1]z8 | 
[V:1] z8 | 
[V:2] G4A4- | 
[V:3] z8 | 
[V:4] z4A,,4- | 
[V:1] z8 | 
[V:2] A2GFE4 | 
[V:3] z8 | 
[V:4] A,,2B,,2C,4 | 
[V:1] z8 | 
[V:2] D2A3GG2- | 
[V:3] z8 | 
[V:4] D,6C,B,, | 
[V:1] z8 | 
[V:2] G2^F2G3A | 
[V:3] z8 | 
[V:4] A,,4G,,2C,2 | 
[V:1] z8 | 
[V:2] B2c3BA2- | 
[V:3] z8 | 
[V:4] D,2E,2A,,4 | 
[V:1] z8 | 
[V:2] A2^G2A4- | 
[V:3] z8 | 
[V:4] B,,4A,,4 | 
[V:1] z8 | 
[V:2] A2GFE2D2 | 
[V:3] z8 | 
[V:4] C,3D,E,2F,2- | 
[V:1] z8 | 
[V:2] G4F4 | 
[V:3] z8 | 
[V:4] F,E,E,4D,2 | 
[V:1] z8 | 
[V:2] E4z4 | 
[V:3] z4e4- | 
[V:4] E,8- | 
[V:1] z8 | 
[V:2] G3AB2c2 | 
[V:3] e4e4 | 
[V:4] E,8 | 
[V:1] z8 | 
[V:2] B2G4FE | 
[V:3] d8 | 
[V:4] z8 | 
[V:1] z4G3A | 
[V:2] D2G2C4 | 
[V:3] d4e4- | 
[V:4] z8 | 
[V:1] B2c2B2G2- | 
[V:2] z8 | 
[V:3] e4e4 | 
[V:4] z8 | 
[V:1] G2FED2G2 | 
[V:2] z4z2G2 | 
[V:3] B8 | 
[V:4] z2G,4F,E, | 
[V:1] F2G2E3F | 
[V:2] A2B2c4- | 
[V:3] z8 | 
[V:4] D,2G,2C,4 | 
[V:1] G2A4G2 | 
[V:2] c2BAB4 | 
[V:3] z8 | 
[V:4] z8 | 
[V:1] A2B2c3B | 
[V:2] A2G2A3B | 
[V:3] e8 | 
[V:4] z8 | 
[V:1] G2A4G2- | 
[V:2] c4B2G2 | 
[V:3] e4d4- | 
[V:4] z8 | 
[V:1] G2^F2G4- | 
[V:2] A4G4 | 
[V:3] d4d4 | 
[V:4] D,4G,4 | 
[V:1] G8- | 
[V:2] c8 | 
[V:3] e8 | 
[V:4] C,6D,2 | 
[V:1] G8- | 
[V:2] B4e4- | 
[V:3] e4B4- | 
[V:4] E,6F,2 | 
[V:1] G4F4- | 
[V:2] e2d4cB | 
[V:3] B4z4 | 
[V:4] G,4D,4- | 
[V:1] F4G3F | 
[V:2] A4G3A | 
[V:3] z8 | 
[V:4] D,4E,3F, | 
[V:1] EDF4E2- | 
[V:2] B2c2A2B2- | 
[V:3] z8 | 
[V:4] G,2A,2F,2G,2 | 
[V:1] EDD4^C2 | 
[V:2] BAA4G2 | 
[V:3] z4e4 | 
[V:4] D,4E,4 | 
[V:1] D8 | 
[V:2] A4B4 | 
[V:3] f8 | 
[V:4] D,8 | 
[V:1] G8- | 
[V:2] c4B4 | 
[V:3] e4d4 | 
[V:4] C,4G,,4 | 
[V:1] G8- | 
[V:2] e8- | 
[V:3] c8 | 
[V:4] C,6D,2 | 
[V:1] G8 ||  
[V:2] e8 ||  
[V:3] B8 ||  
[V:4] E,8 ||  
[V:1]  [K:C] [K:clef=treble][M:3/1]z12 | 
[V:2]  [K:C] [K:clef=treble-8][M:3/1]z12 | 
[V:3]  [K:C] [K:clef=treble-8][M:3/1]E8E4 | 
[V:4]  [K:C] [K:clef=bass][M:3/1]z12 | 
[V:1] z12 | 
[V:2] A8A4 | 
[V:3] A8A4 | 
[V:4] z12 | 
[V:1] D8D4 | 
[V:2] d8d4 | 
[V:3] G4F8 | 
[V:4] z12 | 
[V:1] G8G4 | 
[V:2] c4B8 | 
[V:3] E12 | 
[V:4] z12 | 
[V:1] F4E8 | 
[V:2] A8z2A2- | 
[V:3] z12 | 
[V:4] A,,8A,,4 | 
[V:1] D8F4 | 
[V:2] AGFED2A4B2 | 
[V:3] z12 | 
[V:4] D,8D,4 | 
[V:1] E4D3CD4 | 
[V:2] c2A4GFG2FG | 
[V:3] z4B4B4 | 
[V:4] C,4B,,8 | 
[V:1] C4CDEFG4 | 
[V:2] A8E4 | 
[V:3] E8B4 | 
[V:4] A,,8z4 | 
[V:1] G3AB2c3BA2- | 
[V:2] z4e4e4 | 
[V:3] B4E8 | 
[V:4] E,4E,4A,,4- | 
[V:1] A2GFE4A4 | 
[V:2] A4c3Bc2d2- | 
[V:3] z4A4A4 | 
[V:4] A,,8z2D,2- | 
[V:1] A4D8 | 
[V:2] dcBAB4A4- | 
[V:3] D4z4z2D2- | 
[V:4] D,E,F,2G,4D,2F,2- | 
[V:1] z12 | 
[V:2] A4e4e4 | 
[V:3] DEF2G3AB2c2- | 
[V:4] F,E,D,2C,2E,3D,C,B,, | 
[V:1] z4A4A4 | 
[V:2] e4d8 | 
[V:3] cBAGF6D2 | 
[V:4] C,4D,8 | 
[V:1] A4G8 | 
[V:2] c4B3AB4 | 
[V:3] E2F2G8 | 
[V:4] A,,4E,8 | 
[V:1] F4E2D2E4 | 
[V:2] A3Bc2d4^c2 | 
[V:3] D4A2B2A4 | 
[V:4] z12 | 
[V:1] D4z2D4G2- | 
[V:2] d8z4 | 
[V:3] z4B4B4 | 
[V:4] D,4G,8 | 
[V:1] GFEDC8 | 
[V:2] z4e4e4 | 
[V:3] B4A8 | 
[V:4] G,,4A,,6B,,2 | 
[V:1] C4F3GA2B2 | 
[V:2] e4d8 | 
[V:3] G4F8 | 
[V:4] C,4D,8 | 
[V:1] c2BAG2A4^G2 | 
[V:2] c4B2A2B4 | 
[V:3] E12- | 
[V:4] A,,4z2A,,2E,4 | 
[V:1] A8z4 | 
[V:2] A8c4 | 
[V:3] E12- | 
[V:4] A,,8A,,4 | 
[V:1] G3AB2c2B2G2 | 
[V:2] B4G3AB2c2- | 
[V:3] E4z4z4 | 
[V:4] E,4E,4E,4 | 
[V:1] z2D3EF2G4 | 
[V:2] c2B2A2GFE3F | 
[V:3] z12 | 
[V:4] D,8C,4 | 
[V:1] z4B4c4- | 
[V:2] G2A4^G2A4 | 
[V:3] z12 | 
[V:4] B,,2A,,2B,,4A,,4- | 
[V:1] c2BAG8 | 
[V:2] e4e4e4 | 
[V:3] z4B4B4 | 
[V:4] A,,4E,4E,3F, | 
[V:1] G4F3DE2F2 | 
[V:2] d8c4 | 
[V:3] B4A8 | 
[V:4] G,4D,3C,/B,,/A,,4 | 
[V:1] G2FED2E4D2 | 
[V:2] B4A8 | 
[V:3] G4F2E2F4 | 
[V:4] E,4F,2C,2D,4 | 
[V:1] E12 |]  
[V:2] B12 |]  
[V:3] E12 |]  
[V:4] z2G,4E,2E,4 |]  



